X:7
T:Starlight Serenade - Lullaby
C:Alex
M:3/4
L:1/8
K:F

|: F4G4 | A4C4 | B4A4 | G4z4 |
   F4G4 | A4B4 | C4A4 | F4z4 :|

|: C4D4 | E4G4 | F4E4 | D4z4 |
   C4D4 | E4F4 | G4E4 | C4z4 :|

|: A4G4 | F4D4 | C4A,4 | F4z4 |
   G4F4 | E4C4 | F4z4 | z4 :|